source/img/footer/logo-footer.svg

<svg width="102" height="34" viewBox="0 0 102 34" fill="none" xmlns="http://www.w3.org/2000/svg">
<path d="M19.2204 21.3813C19.1204 18.6962 18.7204 16.1105 18.7204 13.4255C18.7204 11.2376 19.1204 9.04976 18.3204 6.96135C18.3204 6.76246 18.4204 6.46411 18.4204 6.26522C18.6204 5.27074 15.1204 5.76798 14.6204 6.76246C14.3204 7.0608 14.1204 7.35914 14.2204 7.75694C14.2204 7.85638 14.3204 7.95583 14.3204 8.05528C13.6204 11.2376 12.7204 14.3205 11.7204 17.4034C11.3204 18.5967 10.8204 19.6907 10.4204 20.884C9.82041 19.7901 9.22041 18.6962 8.82041 17.5028C7.42041 14.1216 6.22041 10.6409 4.52041 7.35914C4.72041 5.86743 1.32041 5.96688 0.620408 7.35914C-0.179592 9.04976 -0.0795918 10.7404 0.220408 12.5304C0.520408 14.5194 0.620408 16.5083 0.620408 18.5967C0.620408 22.5746 1.02041 26.4531 1.02041 30.431C0.620408 30.8288 0.520408 31.326 0.920408 31.8233C1.12041 32.0222 1.32041 32.2211 1.52041 32.3205C2.52041 33.0167 5.12041 32.42 5.12041 31.0277C5.12041 26.9503 4.82041 22.873 4.72041 18.6962C4.72041 18.2984 4.72041 17.9006 4.72041 17.5028C4.82041 17.6023 4.82041 17.8012 4.92041 17.9006C5.52041 19.4918 6.22041 21.0829 7.12041 22.5746C8.02041 24.0664 8.42041 25.6575 8.92041 27.2487C8.72041 27.4476 8.62041 27.7459 8.72041 27.9448C8.72041 28.1437 8.82041 28.2432 9.02041 28.3426C9.62041 28.8399 10.8204 28.641 11.5204 28.3426C11.8204 28.2432 12.1204 28.0443 12.3204 27.9448C12.6204 27.7459 13.2204 27.2487 13.0204 26.7514C13.0204 26.652 12.9204 26.5526 12.9204 26.4531C13.4204 25.1603 13.6204 23.8675 13.9204 22.5746C14.2204 21.1824 14.7204 19.7901 15.2204 18.4973C15.3204 19.094 15.3204 19.6907 15.4204 20.3868C15.6204 22.9724 15.4204 25.4586 15.4204 27.9448C15.4204 28.7404 15.5204 29.536 15.6204 30.431C15.7204 30.7294 16.0204 32.2211 15.9204 32.3205C15.1204 32.8178 15.3204 33.4144 16.1204 33.6133C17.0204 33.8122 18.2204 33.5139 18.9204 32.9172C20.1204 31.8233 19.5204 30.1327 19.3204 28.7404C18.8204 26.3537 19.3204 23.768 19.2204 21.3813Z" fill="black"/>
<path d="M27.6201 22.0778C27.5201 20.0888 26.8201 18.1993 26.8201 16.2103C26.8201 13.923 27.0201 11.6357 26.6201 9.34845C26.5201 8.65232 22.5201 9.4479 22.7201 10.3429C23.0201 12.4313 22.9201 14.5197 22.9201 16.7076C22.9201 18.6965 23.4201 20.586 23.6201 22.575C23.9201 24.6634 23.5201 26.7518 23.7201 28.7408C23.8201 29.7352 24.5201 31.4258 23.8201 32.3209C23.4201 32.8181 25.3201 32.6192 25.4201 32.6192C26.2201 32.5198 27.2201 32.2214 27.7201 31.6247C28.4201 30.8292 27.9201 29.238 27.8201 28.2435C27.5201 26.2546 27.7201 24.0667 27.6201 22.0778Z" fill="black"/>
<path d="M43.9205 18.7956C41.8205 16.0111 38.0205 18.0001 35.3205 17.3039C33.9205 16.9061 33.9205 15.0166 33.9205 13.9227C33.9205 12.5304 33.8205 11.2376 33.6205 9.84534C33.5205 8.75142 33.6205 7.75694 34.3205 6.96136C34.4205 6.86191 35.2205 6.66302 35.1205 6.66302C35.5205 6.56357 35.8205 6.56357 36.2205 6.56357C37.7205 6.46412 40.8205 6.76247 40.2205 9.04976C39.9205 10.0442 43.8205 9.44755 44.1205 8.45308C45.3205 3.87848 36.8205 4.77351 34.4205 5.3702C32.2205 5.96688 29.8205 7.16026 29.6205 9.7459C29.5205 10.9393 29.9205 12.1326 29.9205 13.326C30.0205 14.7183 29.7205 16.1106 30.2205 17.4034C31.3205 20.3868 35.7205 18.9945 38.0205 19.094C41.8205 19.3923 40.7205 24.5636 40.7205 26.9504C40.7205 28.2432 41.9205 30.3316 40.9205 31.4255C40.3205 32.1216 38.9205 32.1216 38.1205 32.2211C37.3205 32.3205 35.9205 32.5194 35.4205 31.7238C34.4205 30.3316 35.5205 27.9448 35.3205 26.3537C35.2205 25.4586 31.2205 26.2542 31.4205 27.3481C31.7205 29.9338 30.0205 33.4145 33.8205 33.9117C36.2205 34.21 39.0205 33.7128 41.3205 33.0167C42.5205 32.6189 43.6205 32.1216 44.5205 31.2266C45.5205 30.3316 45.2205 28.9393 44.9205 27.7459C44.4205 24.6631 45.8205 21.2818 43.9205 18.7956Z" fill="black"/>
<path d="M61.3201 18.5965C61.2201 14.8175 60.6201 11.1379 60.6201 7.35892C60.6201 5.36997 56.6201 6.0661 56.6201 7.65727C56.6201 11.2374 57.1201 14.8175 57.3201 18.3976C57.3201 18.4971 57.3201 18.4971 57.3201 18.5965C55.4201 18.5965 53.4201 18.7954 51.4201 18.7954C51.6201 14.2208 50.8201 9.64622 51.0201 4.97218C51.0201 4.37549 47.1201 4.87273 47.1201 5.96666C46.9201 10.4418 47.7201 14.8175 47.6201 19.2927C47.5201 21.3811 47.4201 23.5689 47.3201 25.6573C47.3201 26.7512 47.5201 27.8452 47.6201 28.9391C47.7201 29.9336 48.1201 31.2264 47.8201 32.2209C47.6201 33.0164 51.4201 32.5192 51.7201 31.5247C52.2201 29.7347 51.5201 27.5468 51.3201 25.7568C51.1201 24.0661 51.3201 22.2761 51.4201 20.5855C53.4201 20.486 55.5201 20.2871 57.5201 20.5855C57.6201 21.9777 57.7201 23.37 57.8201 24.6628C57.9201 25.8562 58.0201 26.9501 58.0201 28.1435C58.0201 29.138 58.1201 30.6297 57.8201 31.6242C57.0201 33.7126 60.9201 33.5137 61.5201 32.022C62.2201 30.1325 62.0201 27.8452 61.9201 25.8562C61.7201 23.37 61.3201 20.9833 61.3201 18.5965Z" fill="black"/>
<path d="M78.22 22.9729C77.32 20.1884 75.82 17.8016 74.62 15.216C75.62 13.3265 76.62 11.3375 77.52 9.34855C78.32 7.55849 78.92 5.56954 80.62 4.27672C81.22 3.87892 81.22 3.38169 80.32 3.28224C79.42 3.18279 78.22 3.48113 77.52 3.97837C76.12 5.27119 75.12 6.66346 74.42 8.35407C73.52 10.4425 72.52 12.4314 71.52 14.4204C71.42 14.5198 71.42 14.7187 71.32 14.8182C70.82 15.1165 70.52 15.6138 70.72 16.111C69.92 17.7022 69.12 19.1939 68.22 20.6856C67.92 15.216 67.22 9.64689 67.02 4.17727C67.02 2.88445 63.02 3.68003 63.12 5.17174C63.32 12.0336 64.32 18.7961 64.42 25.658C64.42 25.658 64.42 25.658 64.42 25.7574C64.12 26.0558 64.22 26.2547 64.52 26.3541C64.52 28.1442 64.42 29.8348 64.32 31.6248C63.82 32.321 64.82 32.7188 65.42 32.7188H65.52C66.22 32.7188 68.12 32.4204 68.22 31.3265C68.42 29.2381 68.52 27.1497 68.42 25.0613C70.02 23.3707 71.32 21.4812 72.52 19.4922C73.32 20.9839 74.02 22.4756 74.52 24.0668C75.42 26.7519 76.82 29.3375 77.62 32.0226C78.12 33.8127 82.12 32.7188 81.52 31.0282C80.52 28.2436 79.12 25.7574 78.22 22.9729Z" fill="black"/>
<path d="M101.721 18.3983C101.521 17.6027 100.321 17.6027 99.4207 17.6027C99.4207 17.3043 99.4207 16.9066 99.4207 16.6082C99.3207 13.9231 99.2207 11.238 99.0207 8.6524C98.8207 6.1662 97.4207 5.37062 95.0207 5.47007C92.6207 5.56952 89.8207 5.96731 87.5207 6.86234C84.9207 7.85682 83.4207 9.74632 82.9207 12.5309C82.4207 15.5143 83.1207 18.6966 83.3207 21.68C83.5207 25.1607 83.4207 28.6414 83.4207 32.1221C83.4207 32.7187 87.3207 32.1221 87.3207 31.1276C87.3207 28.343 87.3207 25.5585 87.3207 22.8734C87.3207 22.0778 87.2207 21.2823 87.2207 20.4867C88.6207 19.89 90.9207 20.4867 92.3207 20.5861C93.4207 20.6856 94.5207 20.3872 95.5207 20.2878C95.5207 22.5751 95.6207 24.8624 95.7207 27.1497C95.7207 28.343 96.2207 30.6303 95.3207 31.6248C94.9207 32.1221 96.8207 31.9232 96.9207 31.9232C97.7207 31.8237 98.7207 31.5254 99.2207 30.9287C100.121 29.8348 99.7207 27.1497 99.6207 25.8569C99.5207 23.9673 99.5207 22.0778 99.5207 20.1883C100.621 19.9894 101.921 19.2933 101.721 18.3983ZM87.1207 18.2988C87.0207 17.1055 86.9207 15.8126 86.8207 14.6193C86.6207 12.332 86.9207 9.05019 89.1207 7.65792C89.7207 7.26013 90.8207 7.35958 91.5207 7.26013C92.5207 7.06123 93.5207 6.86234 94.3207 7.45902C95.5207 8.25461 95.2207 11.1386 95.2207 12.332C95.2207 14.3209 95.4207 16.3099 95.5207 18.2988C94.9207 18.3983 94.4207 18.3983 93.8207 18.3983C91.5207 18.1994 89.2207 17.8016 87.1207 18.2988Z" fill="black"/>
<path d="M24.2204 6.663C24.7204 6.56355 25.2204 6.4641 25.7204 6.16576C25.8204 6.06631 25.9204 5.96686 25.9204 5.96686C26.4204 5.66852 26.9204 5.17128 26.6204 4.57459C26.1204 3.48067 26.2204 2.38675 26.2204 1.19337C26.2204 0.198895 25.2204 0 24.4204 0C23.7204 0.0994477 22.2204 0.596686 22.2204 1.49172C22.2204 2.48619 22.1204 3.48067 22.3204 4.47515C22.3204 4.57459 22.2204 4.67404 22.2204 4.87294C22.1204 5.07183 22.2204 5.27073 22.3204 5.46962V5.56907C22.3204 5.66852 22.3204 5.76797 22.3204 5.86742C22.4204 6.06631 22.5204 6.26521 22.7204 6.36465C23.3204 6.663 23.8204 6.663 24.2204 6.663Z" fill="black"/>
</svg>

<svg width="102" height="34" fill="none" xmlns="http://www.w3.org/2000/svg"><path d="M19.22 21.38c-.1-2.68-.5-5.27-.5-7.95 0-2.2.4-4.38-.4-6.47 0-.2.1-.5.1-.7.2-.99-3.3-.5-3.8.5-.3.3-.5.6-.4 1 0 .1.1.2.1.3-.7 3.18-1.6 6.26-2.6 9.34-.4 1.2-.9 2.3-1.3 3.48-.6-1.09-1.2-2.18-1.6-3.38-1.4-3.38-2.6-6.86-4.3-10.14.2-1.5-3.2-1.4-3.9 0-.8 1.69-.7 3.38-.4 5.17.3 1.99.4 3.98.4 6.07 0 3.97.4 7.85.4 11.83-.4.4-.5.9-.1 1.4.2.2.4.4.6.5 1 .69 3.6.09 3.6-1.3 0-4.08-.3-8.16-.4-12.33v-1.2c.1.1.1.3.2.4.6 1.6 1.3 3.18 2.2 4.67.9 1.5 1.3 3.09 1.8 4.68-.2.2-.3.5-.2.7 0 .2.1.3.3.4.6.49 1.8.3 2.5 0 .3-.1.6-.3.8-.4.3-.2.9-.7.7-1.2 0-.1-.1-.2-.1-.3.5-1.29.7-2.58 1-3.88.3-1.39.8-2.78 1.3-4.07.1.6.1 1.2.2 1.89.2 2.58 0 5.07 0 7.55 0 .8.1 1.6.2 2.5.1.29.4 1.78.3 1.88-.8.5-.6 1.1.2 1.3.9.2 2.1-.1 2.8-.7 1.2-1.1.6-2.79.4-4.18-.5-2.39 0-4.97-.1-7.36zM27.62 22.08c-.1-2-.8-3.88-.8-5.87 0-2.29.2-4.57-.2-6.86-.1-.7-4.1.1-3.9 1 .3 2.08.2 4.17.2 6.36 0 1.99.5 3.88.7 5.86.3 2.1-.1 4.18.1 6.17.1 1 .8 2.69.1 3.58-.4.5 1.5.3 1.6.3.8-.1 1.8-.4 2.3-1 .7-.8.2-2.38.1-3.38-.3-1.99-.1-4.17-.2-6.16zM43.92 18.8c-2.1-2.79-5.9-.8-8.6-1.5-1.4-.4-1.4-2.28-1.4-3.38 0-1.39-.1-2.68-.3-4.07-.1-1.1 0-2.1.7-2.89.1-.1.9-.3.8-.3.4-.1.7-.1 1.1-.1 1.5-.1 4.6.2 4 2.49-.3 1 3.6.4 3.9-.6 1.2-4.57-7.3-3.68-9.7-3.08-2.2.6-4.6 1.79-4.8 4.38-.1 1.19.3 2.38.3 3.58.1 1.39-.2 2.78.3 4.07 1.1 2.99 5.5 1.6 7.8 1.7 3.8.3 2.7 5.46 2.7 7.85 0 1.3 1.2 3.38.2 4.48-.6.7-2 .7-2.8.8-.8.1-2.2.29-2.7-.5-1-1.4.1-3.79-.1-5.38-.1-.9-4.1-.1-3.9 1 .3 2.58-1.4 6.06 2.4 6.56 2.4.3 5.2-.2 7.5-.9 1.2-.4 2.3-.89 3.2-1.78 1-.9.7-2.3.4-3.48-.5-3.09.9-6.47-1-8.95zM61.32 18.6c-.1-3.78-.7-7.46-.7-11.24 0-1.99-4-1.3-4 .3 0 3.58.5 7.16.7 10.74v.2c-1.9 0-3.9.2-5.9.2.2-4.58-.6-9.15-.4-13.83 0-.6-3.9-.1-3.9 1-.2 4.47.6 8.85.5 13.32l-.3 6.37c0 1.1.2 2.19.3 3.28.1 1 .5 2.29.2 3.28-.2.8 3.6.3 3.9-.7.5-1.79-.2-3.97-.4-5.76-.2-1.7 0-3.48.1-5.17 2-.1 4.1-.3 6.1 0l.3 4.07c.1 1.2.2 2.29.2 3.48 0 1 .1 2.49-.2 3.48-.8 2.1 3.1 1.9 3.7.4.7-1.89.5-4.17.4-6.16-.2-2.49-.6-4.88-.6-7.26zM78.22 22.97c-.9-2.78-2.4-5.17-3.6-7.75 1-1.9 2-3.88 2.9-5.87.8-1.8 1.4-3.78 3.1-5.07.6-.4.6-.9-.3-1-.9-.1-2.1.2-2.8.7-1.4 1.3-2.4 2.68-3.1 4.37-.9 2.1-1.9 4.08-2.9 6.07-.1.1-.1.3-.2.4-.5.3-.8.8-.6 1.3a66.9 66.9 0 01-2.5 4.57c-.3-5.47-1-11.04-1.2-16.51 0-1.3-4-.5-3.9 1 .2 6.85 1.2 13.62 1.3 20.48v.1c-.3.3-.2.5.1.6 0 1.78-.1 3.47-.2 5.26-.5.7.5 1.1 1.1 1.1h.1c.7 0 2.6-.3 2.7-1.4.2-2.08.3-4.17.2-6.26 1.6-1.69 2.9-3.58 4.1-5.57.8 1.5 1.5 2.99 2 4.58.9 2.68 2.3 5.27 3.1 7.95.5 1.8 4.5.7 3.9-1-1-2.78-2.4-5.26-3.3-8.05zM101.72 18.4c-.2-.8-1.4-.8-2.3-.8v-1c-.1-2.68-.2-5.36-.4-7.95-.2-2.48-1.6-3.28-4-3.18-2.4.1-5.2.5-7.5 1.4-2.6.99-4.1 2.88-4.6 5.66-.5 2.98.2 6.17.4 9.15.2 3.48.1 6.96.1 10.44 0 .6 3.9 0 3.9-1v-8.25c0-.8-.1-1.59-.1-2.38 1.4-.6 3.7 0 5.1.1 1.1.1 2.2-.2 3.2-.3 0 2.29.1 4.57.2 6.86 0 1.2.5 3.48-.4 4.47-.4.5 1.5.3 1.6.3.8-.1 1.8-.4 2.3-1 .9-1.09.5-3.77.4-5.06-.1-1.9-.1-3.78-.1-5.67 1.1-.2 2.4-.9 2.2-1.8zm-14.6-.1l-.3-3.68c-.2-2.29.1-5.57 2.3-6.96.6-.4 1.7-.3 2.4-.4 1-.2 2-.4 2.8.2 1.2.8.9 3.68.9 4.87 0 2 .2 3.98.3 5.97-.6.1-1.1.1-1.7.1-2.3-.2-4.6-.6-6.7-.1zM24.22 6.66c.5-.1 1-.2 1.5-.5l.2-.2c.5-.3 1-.79.7-1.39-.5-1.09-.4-2.18-.4-3.38 0-1-1-1.19-1.8-1.19-.7.1-2.2.6-2.2 1.5 0 .99-.1 1.98.1 2.98 0 .1-.1.2-.1.4-.1.2 0 .4.1.59v.4c.1.2.2.4.4.5.6.3 1.1.3 1.5.3z" fill="#000"/></svg>
